img/icon-twitter.svg

<svg xmlns="http://www.w3.org/2000/svg" width="21" height="18"><path fill="#FFF" d="M20.667 2.797a8.192 8.192 0 01-2.357.646 4.11 4.11 0 001.804-2.27 8.22 8.22 0 01-2.606.996A4.096 4.096 0 0014.513.873c-2.649 0-4.595 2.472-3.997 5.038a11.648 11.648 0 01-8.457-4.287 4.109 4.109 0 001.27 5.478A4.086 4.086 0 011.47 6.59c-.045 1.901 1.317 3.68 3.29 4.075a4.113 4.113 0 01-1.853.07 4.106 4.106 0 003.834 2.85 8.25 8.25 0 01-6.075 1.7 11.616 11.616 0 006.29 1.843c7.618 0 11.922-6.434 11.662-12.205a8.354 8.354 0 002.048-2.124z"/></svg>

<?xml version="1.0" encoding="UTF-8" standalone="no"?>
<!DOCTYPE svg PUBLIC "-//W3C//DTD SVG 1.1//EN" "http://www.w3.org/Graphics/SVG/1.1/DTD/svg11.dtd">
<svg width="100%" height="100%" viewBox="0 0 21 18" version="1.1" xmlns="http://www.w3.org/2000/svg" xmlns:xlink="http://www.w3.org/1999/xlink" xml:space="preserve" xmlns:serif="http://www.serif.com/" style="fill-rule:evenodd;clip-rule:evenodd;stroke-linejoin:round;stroke-miterlimit:2;">
    <path d="M20.667,2.797C19.918,3.129 19.124,3.347 18.31,3.443C19.167,2.931 19.808,2.123 20.114,1.173C19.308,1.651 18.427,1.988 17.508,2.169C16.733,1.341 15.647,0.871 14.513,0.873C11.864,0.873 9.918,3.345 10.516,5.911C7.218,5.746 4.141,4.186 2.059,1.624C0.977,3.489 1.537,5.904 3.329,7.102C2.677,7.082 2.04,6.907 1.47,6.59C1.425,8.491 2.787,10.27 4.76,10.665C4.156,10.829 3.522,10.853 2.907,10.735C3.443,12.403 4.989,13.553 6.741,13.585C5.022,14.934 2.835,15.545 0.666,15.285C2.542,16.49 4.726,17.13 6.956,17.128C14.574,17.128 18.878,10.694 18.618,4.923C19.421,4.342 20.115,3.623 20.666,2.799L20.667,2.797Z" style="fill:white;fill-rule:nonzero;"/>
</svg>
